assets/misc-grey/MiscGrey69.svg

<svg width="39" height="40" viewBox="0 0 39 40" fill="none" xmlns="http://www.w3.org/2000/svg">
<path fill-rule="evenodd" clip-rule="evenodd" d="M11.177 18.292C10.167 18.292 9.34896 19.11 9.34896 20.12C9.34896 21.129 10.167 21.948 11.177 21.948C12.187 21.948 13.005 21.129 13.005 20.12C13.005 19.11 12.187 18.292 11.177 18.292ZM19.539 18.292C18.529 18.292 17.71 19.11 17.71 20.12C17.71 21.129 18.529 21.948 19.539 21.948C20.548 21.948 21.367 21.129 21.367 20.12C21.367 19.11 20.548 18.292 19.539 18.292ZM26.072 20.12C26.072 19.11 26.891 18.292 27.9 18.292C28.91 18.292 29.729 19.11 29.729 20.12C29.729 21.129 28.91 21.948 27.9 21.948C26.891 21.948 26.072 21.129 26.072 20.12ZM31.024 31.61C27.955 34.679 23.875 36.37 19.534 36.37C15.194 36.37 11.113 34.679 8.04296 31.61C1.70796 25.274 1.70796 14.965 8.04296 8.62899C11.113 5.55999 15.194 3.86899 19.534 3.86899C23.875 3.86899 27.955 5.55999 31.024 8.62899C34.094 11.698 35.784 15.779 35.784 20.12C35.784 24.46 34.094 28.541 31.024 31.61ZM33.146 6.50799C29.51 2.87199 24.676 0.868988 19.534 0.868988C14.393 0.868988 9.55796 2.87199 5.92196 6.50799C-1.58304 14.013 -1.58304 26.226 5.92196 33.731C9.55796 37.367 14.393 39.37 19.534 39.37C24.676 39.37 29.51 37.367 33.146 33.731C36.782 30.095 38.784 25.261 38.784 20.12C38.784 14.978 36.782 10.144 33.146 6.50799Z" fill="#1A1919"/>
</svg>

<svg xmlns="http://www.w3.org/2000/svg" viewBox="0 0 39 40"><path fill-rule="evenodd" d="M11.177 18.292a1.827 1.827 0 10-.001 3.655 1.827 1.827 0 00.001-3.655zm8.362 0a1.828 1.828 0 10-.001 3.657 1.828 1.828 0 00.001-3.657zm6.533 1.828a1.828 1.828 0 113.656 0 1.828 1.828 0 01-3.656 0zm4.952 11.49a16.143 16.143 0 01-11.49 4.76c-4.34 0-8.421-1.691-11.491-4.76-6.335-6.336-6.335-16.645 0-22.981a16.149 16.149 0 0111.491-4.76c4.341 0 8.421 1.691 11.49 4.76a16.14 16.14 0 014.76 11.491c0 4.34-1.69 8.421-4.76 11.49zm2.122-25.102A19.125 19.125 0 0019.534.869 19.126 19.126 0 005.922 6.508c-7.505 7.505-7.505 19.718 0 27.223a19.126 19.126 0 0013.612 5.639c5.142 0 9.976-2.003 13.612-5.639a19.123 19.123 0 005.638-13.611c0-5.142-2.002-9.976-5.638-13.612z" clip-rule="evenodd"/></svg>
